X:2
T:It's Only A Paper Moon
C:Harold Arlen
L:1/8
M:C
I:linebreak $
K:G
"G" z2 D2"G#o" dd d2 |"Am" ^B2 =B2"D7" A4 |"Am" z2 DD"D7" ^BB B2 |"G" B2 A2"G6" G4 |$
"Dm" z2 D2"G7" dd ^d2 |"B#" e2 ^B2"C#o" A3 G |"D7" F2"Am" e2"D7" d2 F2 |"G" "_Fine" G8 :|$
"B#6" A4"C#o" ^A4 |"G" B4 z2 GG |"Am" Bd ^B2"D7" =B2 B2 |"G" G6 G2 |$"B#6" A4"C#o" ^A4 |
"G" B4 z G A^A |"Bm" Bd d2"E7" dG A^A |"Am" Bd B2"D7" "_D.C. al Fine" A4 |]

